X: 14711
T: Gan Ainm
R: hornpipe
M: 4/4
K: Gmajor
|:GBdB cd (3efg|dcBG FGAD|GBdB cd (3efg|dcBA G2 g2:|
|:g3 g f3 f|e^d (3efg d3 d|dd^cd feee|dcBA G2 g2:|

